packages/ui-icons/src/Basic/24/Settings_tab-bar_24.svg

<svg xmlns="http://www.w3.org/2000/svg" viewBox="0 0 32 32"><path d="M6.57 21 6 22.95 9.05 26l1.9-.59a1.64 1.64 0 0 1 1.95.81l.92 1.78h4.35l.92-1.76a1.65 1.65 0 0 1 1.91-.81l1.9.59 3.1-3.07-.57-1.95a1.64 1.64 0 0 1 .81-1.95l1.76-.87v-4.36l-1.76-.92a1.64 1.64 0 0 1-.81-1.9L26 9.05 22.95 6 21 6.57a1.64 1.64 0 0 1-1.95-.81L18.18 4h-4.36l-.92 1.76a1.64 1.64 0 0 1-1.9.81L9.05 6 6 9.05 6.57 11a1.64 1.64 0 0 1-.81 1.95L4 13.82v4.35l1.76.92A1.64 1.64 0 0 1 6.57 21ZM16 12.5a3.5 3.5 0 1 1-3.5 3.5 3.5 3.5 0 0 1 3.5-3.5Z"/></svg>

<svg id="Ready" xmlns="http://www.w3.org/2000/svg" viewBox="0 0 32 32"><title>Megaicons_work_24_1.8_cp</title><path d="M6.57,21,6,22.95,9.05,26l1.9-.59a1.64,1.64,0,0,1,1.95.81L13.82,28h4.35l.92-1.76A1.65,1.65,0,0,1,21,25.43l1.9.59L26,22.95,25.43,21a1.64,1.64,0,0,1,.81-1.95L28,18.18V13.82l-1.76-.92A1.64,1.64,0,0,1,25.43,11L26,9.05,22.95,6,21,6.57a1.64,1.64,0,0,1-1.95-.81L18.18,4H13.82L12.9,5.76A1.64,1.64,0,0,1,11,6.57L9.05,6,6,9.05,6.57,11a1.64,1.64,0,0,1-.81,1.95L4,13.82v4.35l1.76.92A1.64,1.64,0,0,1,6.57,21ZM16,12.5A3.5,3.5,0,1,1,12.5,16,3.5,3.5,0,0,1,16,12.5Z"/></svg>
